src/lib/packages/icons/src/assets/filled/leaf.svg

<svg width="24" height="24" viewBox="0 0 24 24" fill="none" xmlns="http://www.w3.org/2000/svg">
<path d="M15.38 17.97C12.814 19.814 9.76597 19.108 8.02097 18.433C7.28197 20.033 7.03299 21.13 7.02799 21.155C6.95299 21.508 6.64096 21.749 6.29496 21.749C6.24396 21.749 6.19199 21.744 6.13999 21.733C5.73499 21.648 5.47595 21.251 5.56095 20.846C5.61395 20.592 6.857 14.93 12.517 10.09C10.314 11.109 7.30198 13.418 5.78098 16.95C4.47098 14.33 4.45095 9.48 8.69095 7.19C10.481 6.23 12.291 6.03998 14.481 5.28998C16.061 4.73998 16.9909 3.64003 17.3709 3.09003C17.4609 2.95003 17.661 2.98001 17.711 3.13001C18.41 5.02001 21.22 13.77 15.38 17.97Z" fill="currentColor"/>
</svg>

<svg xmlns="http://www.w3.org/2000/svg" width="24" height="24" fill="none"><path fill="currentColor" d="M15.38 17.97c-2.566 1.844-5.614 1.138-7.359.463-.739 1.6-.988 2.697-.993 2.722a.75.75 0 0 1-1.467-.309c.053-.254 1.296-5.916 6.956-10.756-2.203 1.019-5.215 3.328-6.736 6.86-1.31-2.62-1.33-7.47 2.91-9.76 1.79-.96 3.6-1.15 5.79-1.9a5.961 5.961 0 0 0 2.89-2.2c.09-.14.29-.11.34.04.699 1.89 3.509 10.64-2.331 14.84Z"/></svg>
